apps/scalable/gnome-maps.svg

<svg height="48" width="48" xmlns="http://www.w3.org/2000/svg" xmlns:xlink="http://www.w3.org/1999/xlink"><linearGradient gradientUnits="userSpaceOnUse" x1="0" x2="47" y1="23.5" y2="23.5"><stop offset="0" stop-color="#a9a3d4"/><stop offset=".47001833" stop-color="#87baff"/><stop offset="1" stop-color="#89ec85"/></linearGradient><linearGradient id="a" gradientUnits="userSpaceOnUse" x1="219.99991" x2="234.28575" y1="961.89673" y2="139.03957"><stop offset="0" stop-color="#28b162"/><stop offset="1" stop-color="#35e981"/></linearGradient><linearGradient id="b" gradientUnits="userSpaceOnUse" x1="186.872288359748" x2="191.300472712448" y1="-42.343035824329" y2="-645.023009568007"><stop offset="0" stop-color="#2a2c2f"/><stop offset="1" stop-color="#41474e"/></linearGradient><g stroke-width="1.317422" transform="matrix(.033982988869 0 0 .033982988869 18.714657128814 30.658914261775)"><g fill-rule="evenodd" transform="matrix(1.5026287 0 0 1.5026287 -134.17522 -1024.1756)"><path d="m-277.14286 975.21935-.00014-770s-.28078-27.07338 33.64111-35.46379l285.01589-71.536213 334.457 68.428583 242.13309-62.1651c44.53427-13.715366 44.75291 27.87938 44.75291 27.87938l.00014 768.57143s.192 27.09439-24.53904 33.33836l-264.03239 66.6617-334.285709-65.71435-278.699251 65.53195c-38.55798 10.6629-38.44361-25.53195-38.44361-25.53195z" fill="url(#a)"/><path d="m39.017 98.687205v643.015735l335.477-85.02867v-490.56607z" fill="#2dca6f"/><path d="m36.810263 935.4355 2.206737-212.20032 336.077-75.58198-.2065 352.9069z" fill="#3c9bd8"/><path d="m662.857 522.1585-288.809 126.2072v352.2903l251.50823-61.92815s37.30077-.8737 37.30077-39.9852z" fill="#43adf1"/><path d="m-277.143 861.29057 317.143-137.14285-2.857143 211.42857-276.005937 67.74691s-38.27992 13.1263-38.27992-25.98514z" fill="#43adf1"/><path d="m-277.143 863.80039 317.143-137.99342v-109.34612l-317.143 135.74493z" fill="#efefef"/><path d="m-242.30744 169.5522 115.9744-29.013 166.33304 215.97689.1 186.66348z" fill="#efefef"/><path d="m36.756573 617.28326 42.56025-9.60734-42.56025-73.51316 1.93456-181.84834 135.418967 232.14681 200.9839-56.23303v120.00797l-336.402867 79.38227z" fill="#e0e0e0"/><path d="m373.43162 650.15974 289.42538-129.99342v-125.34612l-289.42538 133.74493z" fill="#efefef"/></g><path d="m191.30047-645.02303c-117.168242 0-212.159471 94.99122-212.159471 212.15821 0 8.96965.719564 17.71149 1.81634 26.37739 18.12854011 165.72389 196.566831 356.72715 196.566831 356.72715 3.17953 3.557985 6.24453 5.75278 9.19624 7.3413l.15188.07594 5.942 1.89228 5.94201-1.89228.15188-.07594c2.95171-1.589764 6.01795-3.897848 9.19623-7.3413 0 0 175.86503-191.34437 193.57652-357.10437 1.05943-8.5526 1.77899-17.21974 1.77899-26.03752-.0386-117.12964-94.99121-212.12086-212.15945-212.12086zm0 348.6277c-75.23556 0-136.468257-61.23269-136.468257-136.46825s61.232697-136.46825 136.468257-136.46825 136.4309 61.23269 136.4309 136.46825-61.19534 136.46825-136.4309 136.46825z" fill="url(#b)"/></g></svg>

<?xml version="1.0" encoding="UTF-8" standalone="no"?>
<!-- Created with Inkscape (http://www.inkscape.org/) -->

<svg
   xmlns:dc="http://purl.org/dc/elements/1.1/"
   xmlns:cc="http://creativecommons.org/ns#"
   xmlns:rdf="http://www.w3.org/1999/02/22-rdf-syntax-ns#"
   xmlns:svg="http://www.w3.org/2000/svg"
   xmlns="http://www.w3.org/2000/svg"
   xmlns:xlink="http://www.w3.org/1999/xlink"
   xmlns:sodipodi="http://sodipodi.sourceforge.net/DTD/sodipodi-0.dtd"
   xmlns:inkscape="http://www.inkscape.org/namespaces/inkscape"
   width="48"
   height="48"
   id="svg5453"
   version="1.1"
   inkscape:version="0.91 r13725"
   sodipodi:docname="marble.svg">
  <defs
     id="defs5455">
    <linearGradient
       id="linearGradient8311-06">
      <stop
         id="stop8313-6"
         style="stop-color:#a9a3d4;stop-opacity:1"
         offset="0" />
      <stop
         offset="0.47001833"
         style="stop-color:#87baff;stop-opacity:1"
         id="stop4462" />
      <stop
         id="stop8315-2"
         style="stop-color:#89ec85;stop-opacity:1"
         offset="1" />
    </linearGradient>
    <linearGradient
       gradientUnits="userSpaceOnUse"
       y2="23.5"
       x2="47"
       y1="23.5"
       x1="0"
       id="linearGradient4460"
       xlink:href="#linearGradient8311-06"
       inkscape:collect="always" />
    <linearGradient
       inkscape:collect="always"
       xlink:href="#linearGradient4149"
       id="linearGradient4155"
       x1="219.99991"
       y1="961.89673"
       x2="234.28575"
       y2="139.03957"
       gradientUnits="userSpaceOnUse" />
    <linearGradient
       inkscape:collect="always"
       id="linearGradient4149">
      <stop
         style="stop-color:#28b162;stop-opacity:1"
         offset="0"
         id="stop4151" />
      <stop
         style="stop-color:#35e981;stop-opacity:1"
         offset="1"
         id="stop4153" />
    </linearGradient>
    <linearGradient
       id="linearGradient4491-8">
      <stop
         style="stop-color:#2a2c2f;stop-opacity:1"
         offset="0"
         id="stop4493-5" />
      <stop
         style="stop-color:#41474e;stop-opacity:1"
         offset="1"
         id="stop4495-2" />
    </linearGradient>
    <linearGradient
       gradientUnits="userSpaceOnUse"
       y2="-585.55237"
       x2="242.95168"
       y1="-101.44139"
       x1="239.39468"
       id="linearGradient4488"
       xlink:href="#linearGradient4491-8"
       inkscape:collect="always"
       gradientTransform="matrix(1.2449211,0,0,1.2449211,-111.1552,83.943491)" />
  </defs>
  <sodipodi:namedview
     id="base"
     pagecolor="#5a5a5a"
     bordercolor="#666666"
     borderopacity="1.0"
     inkscape:pageopacity="0"
     inkscape:pageshadow="2"
     inkscape:zoom="9.1837751"
     inkscape:cx="17.818643"
     inkscape:cy="24.852976"
     inkscape:document-units="px"
     inkscape:current-layer="g5-1"
     showgrid="false"
     fit-margin-top="0"
     fit-margin-left="0"
     fit-margin-right="0"
     fit-margin-bottom="0"
     inkscape:window-width="1366"
     inkscape:window-height="642"
     inkscape:window-x="0"
     inkscape:window-y="33"
     inkscape:window-maximized="1"
     inkscape:showpageshadow="false"
     borderlayer="true"
     showguides="false"
     inkscape:guide-bbox="true"
     showborder="false">
    <inkscape:grid
       type="xygrid"
       id="grid4063" />
    <sodipodi:guide
       position="1.1650391e-05,47.999996"
       orientation="4,0"
       id="guide4146" />
    <sodipodi:guide
       position="1.1650391e-05,43.999996"
       orientation="0,48"
       id="guide4148" />
    <sodipodi:guide
       position="48.000012,43.999996"
       orientation="-4,0"
       id="guide4150" />
    <sodipodi:guide
       position="48.000012,47.999996"
       orientation="0,-48"
       id="guide4152" />
    <sodipodi:guide
       position="1.1650391e-05,4.0000264"
       orientation="4,0"
       id="guide4154" />
    <sodipodi:guide
       position="1.1650391e-05,2.6367188e-05"
       orientation="0,48"
       id="guide4156" />
    <sodipodi:guide
       position="48.000012,2.6367188e-05"
       orientation="-4,0"
       id="guide4158" />
    <sodipodi:guide
       position="48.000012,4.0000264"
       orientation="0,-48"
       id="guide4160" />
    <sodipodi:guide
       position="48.000012,48.000026"
       orientation="0,-4"
       id="guide4162" />
    <sodipodi:guide
       position="44.000012,48.000026"
       orientation="48,0"
       id="guide4164" />
    <sodipodi:guide
       position="44.000012,2.6367188e-05"
       orientation="0,4"
       id="guide4166" />
    <sodipodi:guide
       position="48.000012,2.6367188e-05"
       orientation="-48,0"
       id="guide4168" />
    <sodipodi:guide
       position="4.0000422,48.000026"
       orientation="0,-4"
       id="guide4170" />
    <sodipodi:guide
       position="4.2167969e-05,48.000026"
       orientation="48,0"
       id="guide4172" />
    <sodipodi:guide
       position="4.2167969e-05,2.6367188e-05"
       orientation="0,4"
       id="guide4174" />
    <sodipodi:guide
       position="4.0000422,2.6367188e-05"
       orientation="-48,0"
       id="guide4176" />
    <sodipodi:guide
       position="20,30"
       orientation="39.999969,0"
       id="guide4153" />
    <sodipodi:guide
       position="20.000012,4.0000264"
       orientation="0,8"
       id="guide4155" />
    <sodipodi:guide
       position="25,30"
       orientation="-39.999969,0"
       id="guide4157" />
    <sodipodi:guide
       position="28.000012,43.999996"
       orientation="0,-8"
       id="guide4159" />
    <sodipodi:guide
       position="22,6"
       orientation="-2.5,4"
       id="guide4338" />
    <sodipodi:guide
       position="22,11"
       orientation="5,0"
       id="guide4342" />
    <sodipodi:guide
       position="-194.55244,19.86759"
       orientation="0,1"
       id="guide4458" />
  </sodipodi:namedview>
  <metadata
     id="metadata5458">
    <rdf:RDF>
      <cc:Work
         rdf:about="">
        <dc:format>image/svg+xml</dc:format>
        <dc:type
           rdf:resource="http://purl.org/dc/dcmitype/StillImage" />
        <dc:title></dc:title>
      </cc:Work>
    </rdf:RDF>
  </metadata>
  <g
     inkscape:label="Layer 1"
     inkscape:groupmode="layer"
     id="layer1"
     transform="translate(-384.57143,-499.798)">
    <g
       transform="translate(392.24401,-502.51656)"
       id="layer1-4"
       inkscape:label="Layer 1">
      <g
         transform="matrix(1.138587,0,0,1.138587,-3.4562036,-142.80276)"
         id="g4413"
         style="stroke-width:1.31742239;stroke-miterlimit:4;stroke-dasharray:none">
        <g
           id="g4838"
           transform="matrix(0.23617626,0,0,0.23617626,-138.18396,896.27275)">
          <g
             style="stroke-width:1.31742239;stroke-miterlimit:4;stroke-dasharray:none"
             id="g3-5"
             transform="matrix(0.12255929,0,0,0.12255929,639.50629,577.48902)">
            <g
               id="g5-1">
              <g
                 id="g4492"
                 transform="matrix(1.0311287,0,0,1.0311287,-4.0997753,0.0232454)">
                <path
                   style="opacity:1;fill:url(#linearGradient4155);fill-opacity:1;fill-rule:evenodd;stroke:none;stroke-width:1px;stroke-linecap:butt;stroke-linejoin:miter;stroke-miterlimit:4;stroke-dasharray:none;stroke-opacity:1"
                   d="m -277.14286,975.21935 -1.4e-4,-770 c 0,0 -0.28078,-27.07338 33.64111,-35.46379 L 41.514,98.219347 375.971,166.64793 618.10409,104.48283 c 44.53427,-13.715366 44.75291,27.87938 44.75291,27.87938 l 1.4e-4,768.57143 c 0,0 0.192,27.09439 -24.53904,33.33836 L 374.28571,1000.9337 40.000001,935.21935 -238.69925,1000.7513 c -38.55798,10.6629 -38.44361,-25.53195 -38.44361,-25.53195 z"
                   id="path4147"
                   inkscape:connector-curvature="0"
                   sodipodi:nodetypes="ccccccccccccc"
                   transform="matrix(1.5026287,0,0,1.5026287,-134.17522,-1024.1756)" />
                <path
                   style="fill:#2dca6f;fill-opacity:1;fill-rule:evenodd;stroke:none;stroke-width:1px;stroke-linecap:butt;stroke-linejoin:miter;stroke-miterlimit:4;stroke-dasharray:none;stroke-opacity:1"
                   d="m 39.017,98.687205 0,643.015735 335.477,-85.02867 0,-490.56607 z"
                   id="path4178"
                   inkscape:connector-curvature="0"
                   sodipodi:nodetypes="ccccc"
                   transform="matrix(1.5026287,0,0,1.5026287,-134.17522,-1024.1756)" />
                <path
                   style="fill:#3c9bd8;fill-opacity:1;fill-rule:evenodd;stroke:none;stroke-width:1px;stroke-linecap:butt;stroke-linejoin:miter;stroke-miterlimit:4;stroke-dasharray:none;stroke-opacity:1"
                   d="M 36.810263,935.4355 39.017,723.23518 375.094,647.6532 l -0.2065,352.9069 z"
                   id="path4174"
                   inkscape:connector-curvature="0"
                   sodipodi:nodetypes="ccccc"
                   transform="matrix(1.5026287,0,0,1.5026287,-134.17522,-1024.1756)" />
                <path
                   style="opacity:1;fill:#43adf1;fill-opacity:1;fill-rule:evenodd;stroke:none;stroke-width:1px;stroke-linecap:butt;stroke-linejoin:miter;stroke-miterlimit:4;stroke-dasharray:none;stroke-opacity:1"
                   d="m 662.857,522.1585 -288.809,126.2072 0,352.2903 251.50823,-61.92815 c 0,0 37.30077,-0.8737 37.30077,-39.9852 z"
                   id="path4157-9"
                   inkscape:connector-curvature="0"
                   sodipodi:nodetypes="cccccc"
                   transform="matrix(1.5026287,0,0,1.5026287,-134.17522,-1024.1756)" />
                <path
                   style="opacity:1;fill:#43adf1;fill-opacity:1;fill-rule:evenodd;stroke:none;stroke-width:1px;stroke-linecap:butt;stroke-linejoin:miter;stroke-miterlimit:4;stroke-dasharray:none;stroke-opacity:1"
                   d="M -277.143,861.29057 40,724.14772 37.142857,935.57629 -238.86308,1003.3232 c 0,0 -38.27992,13.1263 -38.27992,-25.98514 z"
                   id="path4157"
                   inkscape:connector-curvature="0"
                   sodipodi:nodetypes="cccccc"
                   transform="matrix(1.5026287,0,0,1.5026287,-134.17522,-1024.1756)" />
                <path
                   style="fill:#efefef;fill-opacity:1;fill-rule:evenodd;stroke:none;stroke-width:1px;stroke-linecap:butt;stroke-linejoin:miter;stroke-miterlimit:4;stroke-dasharray:none;stroke-opacity:1"
                   d="M -277.143,863.80039 40,725.80697 40,616.46085 -277.143,752.20578 Z"
                   id="path4180"
                   inkscape:connector-curvature="0"
                   sodipodi:nodetypes="ccccc"
                   transform="matrix(1.5026287,0,0,1.5026287,-134.17522,-1024.1756)" />
                <path
                   style="fill:#efefef;fill-opacity:1;fill-rule:evenodd;stroke:none;stroke-width:1px;stroke-linecap:butt;stroke-linejoin:miter;stroke-miterlimit:4;stroke-dasharray:none;stroke-opacity:1"
                   d="m -242.30744,169.5522 115.9744,-29.013 L 40,356.51609 40.1,543.17957 Z"
                   id="path4182"
                   inkscape:connector-curvature="0"
                   sodipodi:nodetypes="ccccc"
                   transform="matrix(1.5026287,0,0,1.5026287,-134.17522,-1024.1756)" />
                <path
                   style="fill:#e0e0e0;fill-opacity:1;fill-rule:evenodd;stroke:none;stroke-width:1px;stroke-linecap:butt;stroke-linejoin:miter;stroke-miterlimit:4;stroke-dasharray:none;stroke-opacity:1"
                   d="m 36.756573,617.28326 42.56025,-9.60734 -42.56025,-73.51316 1.93456,-181.84834 135.418967,232.14681 200.9839,-56.23303 0,120.00797 -336.402867,79.38227 z"
                   id="path4184"
                   inkscape:connector-curvature="0"
                   sodipodi:nodetypes="ccccccccc"
                   transform="matrix(1.5026287,0,0,1.5026287,-134.17522,-1024.1756)" />
                <path
                   style="fill:#efefef;fill-opacity:1;fill-rule:evenodd;stroke:none;stroke-width:1px;stroke-linecap:butt;stroke-linejoin:miter;stroke-miterlimit:4;stroke-dasharray:none;stroke-opacity:1"
                   d="M 373.43162,650.15974 662.857,520.16632 l 0,-125.34612 -289.42538,133.74493 z"
                   id="path4180-0"
                   inkscape:connector-curvature="0"
                   sodipodi:nodetypes="ccccc"
                   transform="matrix(1.5026287,0,0,1.5026287,-134.17522,-1024.1756)" />
                <g
                   id="g7-7">
                  <path
                     inkscape:connector-curvature="0"
                     id="path9-8"
                     d="m 191.30047,-645.02303 c -117.168242,0 -212.159471,94.99122 -212.159471,212.15821 0,8.96965 0.719564,17.71149 1.81634,26.37739 18.12854011,165.72389 196.566831,356.72715 196.566831,356.72715 3.17953,3.557985 6.24453,5.75278 9.19624,7.3413 l 0.15188,0.07594 5.942,1.89228 5.94201,-1.89228 0.15188,-0.07594 c 2.95171,-1.589764 6.01795,-3.897848 9.19623,-7.3413 0,0 175.86503,-191.34437 193.57652,-357.10437 1.05943,-8.5526 1.77899,-17.21974 1.77899,-26.03752 -0.0386,-117.12964 -94.99121,-212.12086 -212.15945,-212.12086 z m 0,348.6277 c -75.23556,0 -136.468257,-61.23269 -136.468257,-136.46825 0,-75.23556 61.232697,-136.46825 136.468257,-136.46825 75.23556,0 136.4309,61.23269 136.4309,136.46825 0,75.23556 -61.19534,136.46825 -136.4309,136.46825 z"
                     style="fill:url(#linearGradient4488);fill-opacity:1" />
                </g>
              </g>
            </g>
            <g
               id="g11-4" />
            <g
               id="g13-0" />
            <g
               id="g15-6" />
            <g
               id="g17-0" />
            <g
               id="g19-9" />
            <g
               id="g21-4" />
            <g
               id="g23-9" />
            <g
               id="g25-8" />
            <g
               id="g27-9" />
            <g
               id="g29-8" />
            <g
               id="g31-6" />
            <g
               id="g33-6" />
            <g
               id="g35-7" />
            <g
               id="g37-7" />
            <g
               id="g39-1" />
          </g>
        </g>
      </g>
      <g
         style="fill:url(#linearGradient4460);fill-opacity:1"
         transform="matrix(0.48796879,0,0,0.48796879,21.356721,1026.8977)"
         id="g3" />
    </g>
  </g>
</svg>
